img/vk.svg

<svg width="25" height="24" viewBox="0 0 25 24" fill="none" xmlns="http://www.w3.org/2000/svg">
<path d="M17.6484 13.7453C16.6756 12.8147 16.6061 12.8147 17.4399 11.7409C18.4822 10.3808 19.8718 8.66268 18.6212 8.66268H16.3282C15.9113 8.66268 15.8418 8.94903 15.7029 9.30696C15.147 10.6671 14.0353 12.4568 13.6184 12.1704C13.2015 11.8841 13.4099 10.8103 13.4099 9.0922C13.4794 8.87744 13.4099 8.66268 13.2709 8.51951C13.132 8.37633 12.9235 8.23316 12.7151 8.23316C12.3677 8.16158 12.0202 8.08999 11.6728 8.08999C10.3526 8.08999 9.44937 8.66268 9.93575 8.73427C10.839 8.87744 10.7695 10.8819 10.5611 11.7409C10.2137 13.2442 8.82402 10.5955 8.19867 9.23537C8.12919 8.87744 7.85125 8.66268 7.50384 8.66268H5.69727C5.41934 8.66268 5.21089 8.73427 5.21089 8.94903C5.21089 9.30696 6.94797 12.8147 8.54609 14.6044C10.1442 16.3224 11.7423 16.1793 12.854 16.1793C12.993 16.1793 13.132 16.1077 13.2015 16.0361C13.2709 15.9645 13.3404 15.8213 13.3404 15.6782C13.3404 14.5328 13.7573 13.9601 14.5216 14.7475C15.3554 15.6066 15.5639 16.1793 16.6061 16.1793H18.4822C18.9686 16.1793 19.1075 16.0361 19.1075 15.8213C19.177 15.3202 18.3432 14.3896 17.6484 13.7453ZM12.7151 0.000717078C19.177 0.14389 24.3188 5.51288 24.2493 12.0272C24.1798 18.5416 18.8296 23.6958 12.3677 23.6243C5.83624 23.5527 0.625 18.3269 0.625 11.8125C0.694483 5.22653 6.11417 -0.0708694 12.7151 0.000717078Z" fill="#999999"/>
</svg>

<svg width="25" height="24" fill="none" xmlns="http://www.w3.org/2000/svg"><path d="M17.648 13.745c-.972-.93-1.042-.93-.208-2.004 1.042-1.36 2.432-3.078 1.181-3.078h-2.293c-.417 0-.486.286-.625.644-.556 1.36-1.668 3.15-2.085 2.863-.417-.286-.208-1.36-.208-3.078.07-.215 0-.43-.14-.572-.138-.144-.346-.287-.555-.287-.347-.071-.695-.143-1.042-.143-1.32 0-2.224.573-1.737.644.903.143.834 2.148.625 3.007-.347 1.503-1.737-1.146-2.362-2.506a.682.682 0 00-.695-.572H5.697c-.278 0-.486.071-.486.286 0 .358 1.737 3.866 3.335 5.655 1.598 1.718 3.196 1.575 4.308 1.575a.523.523 0 00.348-.143.556.556 0 00.138-.358c0-1.145.417-1.718 1.182-.93.833.859 1.042 1.431 2.084 1.431h1.876c.487 0 .626-.143.626-.358.069-.5-.765-1.431-1.46-2.076zM12.715.001C19.177.144 24.32 5.513 24.25 12.027c-.07 6.515-5.42 11.669-11.881 11.597C5.836 23.553.625 18.327.625 11.813.695 5.226 6.115-.072 12.715 0z" fill="#999"/></svg>
